X: 280
T: Going to Donnybrook
C: anon.
O: Ireland
B: Francis O'Neill: "The Dance Music of Ireland" (1907) no. 280
R: Double jig
Z: Transcribed by Frank Nordberg - http://www.musicaviva.com
F: http://www.musicaviva.com/abc/tunes/ireland/oneill-1001/oneill-1001-028
0.abc
M: 6/8
L: 1/8
K: G
EW||DGG BGG|AGG GBd|efg dBG|AGA BGE|DGG BGG|AGG GBd|efg dBG|AGG G2:|f|gfg
 efg|
efd def|gfg eag|fdd d2f|gfg efg|edB def|[1gfe dBA|BGG G2:|[2gba gfe|dBA B
GEW|]
W:
W:
W: From Musica Viva - http://www.musicaviva.com
W: the Internet center for free sheet music downloads.


